X:1
T:Title
%%score { ( 1 3 ) | ( 2 4 ) }
L:1/8
M:6/8
K:C
V:1 treble nm="Grand Piano"
V:3 treble 
V:2 bass 
V:4 bass 
V:1
 z3 z2[Q:1/4=56] [CE]/[DF]/ | [EG]>[EG][EG] [EG][EA]>[G,E] | [B,FG]2 [B,FG] [CEG]2 [Ec] | %3
 [DB][B,D][CE] [DF]2 [B,FA] |[M:5/8] [CEG]- [CEG]3 z |[M:1/8] [G,CE]/[G,DF]/ | %6
[M:3/4] [EG]>[EG] [EG][EG] [EA]>[G,E] | [B,FG]2 [B,FG] [CEG]2 [Ec] | B>B B c2 ^F | %9
[M:5/8] [G,B,G]- [G,B,G]3 z |[M:1/8] G/G/ |[M:3/4] dB AG AF | E2 [_EA] [G,=EG]2 G | d>B AG/A/- AF | %14
[M:5/8] E- E3 z |[M:1/8] [EG]/[EG]/ |[M:3/4] [Ec][Ec] [Ec] B2 E/E/ |[M:7/8] A2 [GA] [^Fd]3 d/c/ | %18
[M:3/4] B>B B [Ec]2 [Fd] |[M:5/8] [Ec]- [Ec]3 z |[M:1/8] G/G/ |[M:3/4] f2 e d2 c | %22
 B>A B [Ec]2 [EG]/[EG]/ | z2 z .[^Fd]3 |[M:5/8] B- B3 z |[M:1/8] G/G/ | %26
[M:3/4] [Ec]>[Ec] [Ec] [Ge]2 [EG]/[EG]/ |[M:7/8] A2 [GA] [^Fd]3 c |[M:3/4] B>B B [Ec]2 [Fd] | %29
[M:5/8] [Ec]- [Ec]3 z |] %30
V:2
 z3 z2 [C,G,]/[C,G,]/ | [C,C]>[C,C][C,C] [C,C][C,C]>C, | D,2 G,, C,2 [C,G,] | %3
 [G,,G,][G,,G,][G,,G,] [G,,G,]2 G,, |[M:5/8] C,- C,3 z |[M:1/8] C,/C,/ | %6
[M:3/4] [C,C]>[C,C] [C,C][C,C] [C,C]>C, | D,2 G,, C,2 [C,G,] | %8
 [D,G,D]>[D,G,D] [D,G,D] [D,A,D]2 [D,A,C] |[M:5/8] G,,- G,,3 z |[M:1/8] G,/G,/ | %11
[M:3/4][K:treble] [G,B,F][G,DF] [G,CF][G,B,F] [G,B,F][K:bass][G,D] | [C,G,C]2 [C,^F,] C,2 G, | %13
 [G,B,F]>[G,DF] [G,CF] [G,B,F]2 [G,D] |[M:5/8][K:bass] [C,G,C]- [C,G,C]3 z |[M:1/8] [C,C]/[C,C]/ | %16
[M:3/4] [C,G,][C,G,] [A,,A,] [E,^G,E]2 [E,G,]/[E,G,D]/ | %17
[M:7/8] [F,A,C]2 [E,^C] [D,D]3 [^F,A,D]/[F,A,D]/ | %18
[M:3/4][K:treble] [G,D]>[G,D] [G,F][K:bass] [G,,G,]2 [G,,G,] |[M:5/8] [C,G,]- [C,G,]3 z | %20
[M:1/8] G,/G,/ |[M:3/4][K:treble] [G,B,A]2 [G,B,G] [G,B,F]2 [G,CE] | %22
 [G,DF]>[G,DF] [G,F][K:bass] [C,G,]2 [C,C]/[C,C]/ | z2 z D z2 |[M:5/8] [G,D]- [G,D]3 z | %25
[M:1/8][K:treble] [G,F]/[G,F]/ |[M:3/4][K:bass] [C,G,]>[C,G,] [C,G,] [C,C]2 [C,C]/[C,C]/ | %27
[M:7/8] [F,C]2 [E,^C] [D,D]3 [^F,A,D] | %28
[M:3/4][K:treble] [G,D]>[G,D] [G,F][K:bass] [G,,G,]2 [G,,G,] |[M:5/8] [C,G,]- [C,G,]3 z |] %30
V:3
 x6 | x6 | x6 | x6 |[M:5/8] x5 |[M:1/8] x |[M:3/4] x6 | x6 | x6 |[M:5/8] x5 |[M:1/8] x | %11
[M:3/4] x6 | x6 | x6 |[M:5/8] x5 |[M:1/8] x |[M:3/4] x6 |[M:7/8] x7 |[M:3/4] x6 |[M:5/8] x5 | %20
[M:1/8] x |[M:3/4] x6 | x6 | [FA]>[FA] .[GA]2 A,A |[M:5/8] x5 |[M:1/8] x |[M:3/4] x6 |[M:7/8] x7 | %28
[M:3/4] x6 |[M:5/8] x5 |] %30
V:4
 x6 | x6 | x6 | x6 |[M:5/8] x5 |[M:1/8] x |[M:3/4] x6 | x6 | x6 |[M:5/8] x5 |[M:1/8] x | %11
[M:3/4][K:treble] x5[K:bass] x | x6 | x6 |[M:5/8][K:bass] x5 |[M:1/8] x |[M:3/4] x6 |[M:7/8] x7 | %18
[M:3/4][K:treble] x3[K:bass] x3 |[M:5/8] x5 |[M:1/8] x |[M:3/4][K:treble] x6 | x3[K:bass] x3 | %23
 [F,C]>[F,C] [E,^C] D,2 [D,^F,D] |[M:5/8] x5 |[M:1/8][K:treble] x |[M:3/4][K:bass] x6 |[M:7/8] x7 | %28
[M:3/4][K:treble] x3[K:bass] x3 |[M:5/8] x5 |] %30

